app/assets/images/heroicons/micro/gift-top.svg

<svg width="16" height="16" viewBox="0 0 16 16" fill="none" xmlns="http://www.w3.org/2000/svg">
<path d="M7.25 2H3.5C2.67157 2 2 2.67157 2 3.5V7.25H3.71825C2.81217 6.26934 2.83538 4.73943 3.7879 3.78692C4.74009 2.83472 6.2693 2.81121 7.25 3.71637V2Z" fill="black"/>
<path d="M2 8.75V12.5C2 13.3284 2.67157 14 3.5 14H7.25V10.9152C6.43752 11.9589 5.19884 12.6545 3.79512 12.7409C3.38169 12.7664 3.02591 12.4518 3.00046 12.0384C2.97502 11.625 3.28954 11.2692 3.70297 11.2438C5.14864 11.1548 6.33894 10.1197 6.66254 8.75H2Z" fill="black"/>
<path d="M8.75 14H12.5C13.3284 14 14 13.3284 14 12.5V8.75H9.33745C9.66098 10.1194 10.8509 11.1544 12.2962 11.2437C12.7097 11.2693 13.0241 11.6251 12.9985 12.0385C12.973 12.452 12.6171 12.7664 12.2037 12.7409C10.8005 12.6542 9.56226 11.9587 8.75 10.9153V14Z" fill="black"/>
<path d="M14 7.25H12.2824C13.1885 6.26934 13.1653 4.73943 12.2128 3.78692C11.2604 2.83451 9.73067 2.81119 8.75 3.71698V2H12.5C13.3284 2 14 2.67157 14 3.5V7.25Z" fill="black"/>
<path d="M6.35167 6.78732C6.51146 6.79857 6.66356 6.80123 6.80011 6.79914C6.80221 6.66259 6.79955 6.51048 6.7883 6.35069C6.74491 5.73427 6.58522 5.17003 6.26277 4.84758C5.87225 4.45706 5.23908 4.45706 4.84856 4.84758C4.45803 5.2381 4.45803 5.87127 4.84856 6.26179C5.17101 6.58425 5.73525 6.74393 6.35167 6.78732Z" fill="black"/>
<path d="M9.649 6.78732C9.48921 6.79857 9.3371 6.80123 9.20055 6.79914C9.19846 6.66259 9.20112 6.51048 9.21237 6.35069C9.25576 5.73427 9.41545 5.17003 9.7379 4.84758C10.1284 4.45706 10.7616 4.45706 11.1521 4.84758C11.5426 5.2381 11.5426 5.87127 11.1521 6.26179C10.8297 6.58425 10.2654 6.74393 9.649 6.78732Z" fill="black"/>
</svg>

<svg xmlns="http://www.w3.org/2000/svg" viewBox="0 0 16 16" fill="currentColor" aria-hidden="true" data-slot="icon">
  <path d="M7.25 2H3.5A1.5 1.5 0 0 0 2 3.5v3.75h1.718A2.5 2.5 0 0 1 7.25 3.716V2ZM2 8.75v3.75A1.5 1.5 0 0 0 3.5 14h3.75v-3.085a4.743 4.743 0 0 1-3.455 1.826.75.75 0 1 1-.092-1.497 3.252 3.252 0 0 0 2.96-2.494H2ZM8.75 14h3.75a1.5 1.5 0 0 0 1.5-1.5V8.75H9.337a3.252 3.252 0 0 0 2.96 2.494.75.75 0 1 1-.093 1.497 4.743 4.743 0 0 1-3.454-1.826V14ZM14 7.25h-1.718A2.5 2.5 0 0 0 8.75 3.717V2h3.75A1.5 1.5 0 0 1 14 3.5v3.75Z"/>
  <path d="M6.352 6.787c.16.012.312.014.448.012.002-.136 0-.289-.012-.448-.043-.617-.203-1.181-.525-1.503a1 1 0 0 0-1.414 1.414c.322.322.886.482 1.503.525ZM9.649 6.787c-.16.012-.312.014-.448.012-.003-.136 0-.289.011-.448.044-.617.203-1.181.526-1.503a1 1 0 1 1 1.414 1.414c-.322.322-.887.482-1.503.525Z"/>
</svg>
